svg/u1f362.svg

<svg viewBox="0 0 128 128" xmlns="http://www.w3.org/2000/svg">
  <path d="M41.1,34.71l-5.86,6.2c0,0,79.68,80.9,81.65,82.34c5.17,3.79,8.96-1.03,5.34-4.82 C119.79,115.86,41.1,34.71,41.1,34.71z" fill="#E0C290"/>
  <path d="M7.72,5.48c-2.25,2.01-2.28,5.23-2.75,25.95S4.4,62.06,8.08,63.28c4.94,1.65,18.87-11.57,31.35-22.87 c8.27-7.49,19.73-18.02,24.14-24.45c2.25-3.28,1.41-5.08,0-6.02c-3.15-2.1-14.36-4.46-28.66-5.55C17.84,3.1,9.96,3.47,7.72,5.48z" fill="#937672"/>
  <path d="M11.43,58.17c-0.82,0-1.49-0.67-1.5-1.49c0-0.14-0.09-14.04-0.35-24.44 C9.33,21.75,10.19,9.83,10.2,9.72c0.06-0.77,0.69-1.37,1.46-1.39c0.13,0,13.3-0.34,21.54,0.09c8.25,0.43,25.69,2.95,26.43,3.06 c0.82,0.12,1.39,0.88,1.27,1.7c-0.12,0.82-0.88,1.39-1.7,1.27c-0.18-0.03-18.05-2.61-26.16-3.03c-6.56-0.35-16.36-0.19-19.94-0.12 c-0.21,3.4-0.72,12.6-0.52,20.87c0.26,10.43,0.35,24.36,0.35,24.5C12.94,57.49,12.27,58.17,11.43,58.17 C11.44,58.17,11.44,58.17,11.43,58.17z" fill="#7B5E5A"/>
  <path d="M24.32,49.2c-0.82,0-1.5-0.67-1.5-1.49c0-0.17-0.09-16.63,0-22.41c0.09-5.79,0.52-15.11,0.52-15.2 c0.04-0.83,0.76-1.46,1.57-1.43c0.83,0.04,1.47,0.74,1.43,1.57c0,0.09-0.44,9.36-0.52,15.1c-0.09,5.75,0,22.18,0,22.35 C25.83,48.52,25.16,49.2,24.32,49.2C24.33,49.2,24.32,49.2,24.32,49.2z" fill="#7B5E5A"/>
  <path d="M50.18,25.69c-0.01,0-0.01,0-0.02,0c-0.16,0-15.88-0.17-20.77-0.09 c-4.92,0.09-17.49,0.09-17.62,0.09c-0.83,0-1.5-0.67-1.5-1.5s0.67-1.5,1.5-1.5c0.13,0,12.67,0,17.56-0.09 c4.93-0.08,20.7,0.09,20.85,0.09c0.83,0.01,1.49,0.69,1.48,1.52C51.67,25.03,51,25.69,50.18,25.69z" fill="#7B5E5A"/>
  <path d="M11.26,39.71c-0.82,0-1.49-0.66-1.5-1.48c-0.01-0.83,0.65-1.51,1.48-1.52l25.61-0.41l0.08-25.96 c0-0.83,0.67-1.5,1.5-1.5c0,0,0,0,0,0c0.83,0,1.5,0.68,1.5,1.5l-0.09,27.43c0,0.82-0.66,1.48-1.48,1.5l-27.08,0.44 C11.28,39.71,11.27,39.71,11.26,39.71z" fill="#7B5E5A"/>
  <path d="M14.93,30.85c-1.02,0.95-1.17,2.62,0,3.64c1.17,1.02,2.7,0.8,3.42,0c1.09-1.2,0.66-2.62-0.36-3.57 C17.27,30.26,15.76,30.08,14.93,30.85z" fill="#5D423C"/>
  <path d="M14.64,19.49c0.96,0,1.13,0.48,1.2,1.13s-0.47,1.13-1.13,1.2c-0.66,0.07-1.32-0.47-1.25-1.2 C13.54,19.89,13.91,19.49,14.64,19.49z" fill="#5D423C"/>
  <path d="M28.62,30.26c0.02,1.15,1.02,1.99,2.24,1.97c1.46-0.03,1.94-1.34,1.92-2.19 c-0.02-1.13-0.68-2.15-1.99-2.15C29.48,27.88,28.59,28.6,28.62,30.26z" fill="#5D423C"/>
  <path d="M33.44,27.43c-0.02,0.73,0.29,1.63,1.47,1.61c1.18-0.02,1.38-1.04,1.4-1.58s-0.34-1.36-1.33-1.38 C34,26.05,33.46,26.68,33.44,27.43z" fill="#5D423C"/>
  <path d="M47.09,15.92c-0.05,1.65,1.16,2.25,2.22,2.19c1.29-0.06,1.96-0.98,1.94-2.17 c-0.03-1.29-1.06-1.86-1.99-1.94S47.13,14.74,47.09,15.92z" fill="#5D423C"/>
  <path d="M55.07,18.17c-1.14-0.05-1.99,0.93-1.83,2.19c0.13,1.01,1.01,1.54,1.99,1.47 c1.11-0.08,1.58-1.08,1.55-2.04C56.75,19.05,56.18,18.22,55.07,18.17z" fill="#5D423C"/>
  <path d="M14.15,48.74c-0.86,0.79-0.41,2.13,0.15,2.63c0.64,0.58,1.99,0.53,2.55-0.28 c0.48-0.7,0.47-1.86-0.28-2.44C16.02,48.23,14.97,47.99,14.15,48.74z" fill="#5D423C"/>
  <path d="M58.43,42.14c0,0-20.64,1.55-23.15,9.61c-1.47,4.71-1.96,12.74,2.39,19.09 c2.91,4.25,7.94,7.98,16.44,8.64c6.44,0.5,11.37-1.36,14.94-4.3c-0.89-0.95-2.03-2.05-2.03-2.05l5.99-5.5c0,0,0.6,0.6,1.19,1.26 c2.95-5.81,3.67-13.91,2.26-17.73C74.64,46.19,58.43,42.14,58.43,42.14z" fill="#FFA62B"/>
  <path d="M60.65,35.25C50.36,32.79,39.1,40.5,35.99,49.29c-3.11,8.79,2.27,21.55,15.65,24.55 c14.37,3.22,24.98-9.33,25.19-19.08C77.05,45.01,71.12,37.76,60.65,35.25z" fill="#F7C876"/>
  <path d="M44.06,45.95c-1.95-1.22-6.04,2.87-5.56,8.55c0.44,5.09,3.05,7.93,5.31,7.51 c3.6-0.67,0.68-5.12,0.61-9.4C44.38,49.97,46.55,47.51,44.06,45.95z" fill="#FEFFFE"/>
  <path d="M73.38,74.16c-9.72,9.33-20.22,17.35-22.14,19.05c-1.92,1.7-4.9,3.19-5.11,6.07 c-0.21,2.87-0.11,5.53,1.06,8.09s5,6.6,7.02,8.51c2.02,1.92,8.19,6.81,10.86,7.77c2.66,0.96,5.11,0.11,6.6-0.53 c1.49-0.64,3.41-3.3,3.41-3.3l11.6-18.62l12.35-11.17c0,0,18.94-14.05,18.84-14.58c-0.11-0.53,1.06-3.72,0.53-6.07 s-2.94-4.39-2.94-4.39s0.15-3.21-0.74-5.1c-0.49-1.04-2.17-2.6-3.83-3.33c-1.94-0.85-4.95-0.81-4.95-0.81s-0.09-3.34-6.17-4.68 c-3.81-0.84-7.13,3.09-8.41,4.58C90.09,57.13,84.02,63.94,73.38,74.16z" fill="#FFEDC4"/>
  <path d="M53.51,103.71c-2.21,2.15,1.74,6.49,3.99,8.61c1.97,1.86,5.91,5.25,8.09,3.37 c2.18-1.88-1.37-6.56-3.79-8.94C59.73,104.73,55.99,101.29,53.51,103.71z" fill="#BF9177"/>
  <path d="M60.41,96.26c0.81,1.62,7.32-2.53,8.73-3.51c3.94-2.77,13.2-11.39,19.16-17.13 s17.74-19.86,17.74-19.86s-0.32-1.5-1.38-2.47c-0.63-0.58-2.12-1.3-2.12-1.3S86.91,69.76,83.19,73.38 C79.46,77,68.82,86.58,66.9,88.07C64.99,89.56,59.56,94.56,60.41,96.26z" fill="#FAC96D"/>
  <path d="M71.05,104.64c1.09,1.09,5.47-2.31,7.88-4.47c2.49-2.23,17.56-16.71,21.5-20.22 c3.94-3.51,15.06-14.97,15.06-14.97s0.21-1.59-0.21-3.48c-0.3-1.37-1.03-2.36-1.03-2.36s-12.76,12.71-15.63,15.8 c-2.87,3.09-19.09,17.94-21.29,19.9C73.18,98.57,70.1,103.68,71.05,104.64z" fill="#FAC96D"/>
  <path d="M76.68,110.77c-2.55,4.26-3.06,10.78-3.06,10.78s7.31-8.65,11.89-13.33c1.6-1.64,4.77-4.74,8.3-8.05 c-0.84-0.88-1.82-1.84-1.82-1.84l5.63-5.3c0,0,0.82,0.86,1.85,1.92c4.8-4.43,9.32-8.5,10.72-9.61c4.15-3.3,7.45-5.75,8.09-6.81 s-0.06-5.12-0.06-5.12s-12.39,8.52-23.46,19.06C86.31,100.51,78.41,107.88,76.68,110.77z" fill="#FAC96D"/>
</svg>

<svg viewBox="0 0 128 128" xmlns="http://www.w3.org/2000/svg">
  <defs/>
  <path d="M41.1,34.71 L35.24,40.91 C35.24,40.91 114.92,121.81 116.89,123.25 C122.06,127.04 125.85,122.22 122.23,118.43 C119.79,115.86 41.1,34.71 41.1,34.71 Z" fill="#E0C290"/>
  <path d="M7.72,5.48 C5.47,7.49 5.44,10.71 4.97,31.43 C4.5,52.15 4.4,62.06 8.08,63.28 C13.02,64.93 26.95,51.71 39.43,40.41 C47.7,32.92 59.16,22.39 63.57,15.96 C65.82,12.68 64.98,10.88 63.57,9.94 C60.42,7.84 49.21,5.48 34.91,4.39 C17.84,3.1 9.96,3.47 7.72,5.48 Z" fill="#937672"/>
  <path d="M11.43,58.17 C10.61,58.17 9.94,57.5 9.93,56.68 C9.93,56.54 9.84,42.64 9.58,32.24 C9.33,21.75 10.19,9.83 10.2,9.72 C10.26,8.95 10.89,8.35 11.66,8.33 C11.79,8.33 24.96,7.99 33.2,8.42 C41.45,8.85 58.89,11.37 59.63,11.48 C60.45,11.6 61.02,12.36 60.9,13.18 C60.78,14 60.02,14.57 59.2,14.45 C59.02,14.42 41.15,11.84 33.04,11.42 C26.48,11.07 16.68,11.23 13.1,11.3 C12.89,14.7 12.38,23.9 12.58,32.17 C12.84,42.6 12.93,56.53 12.93,56.67 C12.94,57.49 12.27,58.17 11.43,58.17 C11.44,58.17 11.44,58.17 11.43,58.17 Z" fill="#7B5E5A"/>
  <path d="M24.32,49.2 C23.5,49.2 22.82,48.53 22.82,47.71 C22.82,47.54 22.73,31.08 22.82,25.3 C22.91,19.51 23.34,10.19 23.34,10.1 C23.38,9.27 24.1,8.64 24.91,8.67 C25.74,8.71 26.38,9.41 26.34,10.24 C26.34,10.33 25.9,19.6 25.82,25.34 C25.73,31.09 25.82,47.52 25.82,47.69 C25.83,48.52 25.16,49.2 24.32,49.2 C24.33,49.2 24.32,49.2 24.32,49.2 Z" fill="#7B5E5A"/>
  <path d="M50.18,25.69 C50.17,25.69 50.17,25.69 50.16,25.69 C50,25.69 34.28,25.52 29.39,25.6 C24.47,25.69 11.9,25.69 11.77,25.69 C10.94,25.69 10.27,25.02 10.27,24.19 C10.27,23.36 10.94,22.69 11.77,22.69 C11.9,22.69 24.44,22.69 29.33,22.6 C34.26,22.52 50.03,22.69 50.18,22.69 C51.01,22.7 51.67,23.38 51.66,24.21 C51.67,25.03 51,25.69 50.18,25.69 Z" fill="#7B5E5A"/>
  <path d="M11.26,39.71 C10.44,39.71 9.77,39.05 9.76,38.23 C9.75,37.4 10.41,36.72 11.24,36.71 L36.85,36.3 L36.93,10.34 C36.93,9.51 37.6,8.84 38.43,8.84 C38.43,8.84 38.43,8.84 38.43,8.84 C39.26,8.84 39.93,9.52 39.93,10.34 L39.84,37.77 C39.84,38.59 39.18,39.25 38.36,39.27 L11.28,39.71 C11.28,39.71 11.27,39.71 11.26,39.71 Z" fill="#7B5E5A"/>
  <path d="M14.93,30.85 C13.91,31.8 13.76,33.47 14.93,34.49 C16.1,35.51 17.63,35.29 18.35,34.49 C19.44,33.29 19.01,31.87 17.99,30.92 C17.27,30.26 15.76,30.08 14.93,30.85 Z" fill="#5D423C"/>
  <path d="M14.64,19.49 C15.6,19.49 15.77,19.97 15.84,20.62 C15.91,21.27 15.37,21.75 14.71,21.82 C14.05,21.89 13.39,21.35 13.46,20.62 C13.54,19.89 13.91,19.49 14.64,19.49 Z" fill="#5D423C"/>
  <path d="M28.62,30.26 C28.64,31.41 29.64,32.25 30.86,32.23 C32.32,32.2 32.8,30.89 32.78,30.04 C32.76,28.91 32.1,27.89 30.79,27.89 C29.48,27.88 28.59,28.6 28.62,30.26 Z" fill="#5D423C"/>
  <path d="M33.44,27.43 C33.42,28.16 33.73,29.06 34.91,29.04 C36.09,29.02 36.29,28 36.31,27.46 C36.33,26.92 35.97,26.1 34.98,26.08 C34,26.05 33.46,26.68 33.44,27.43 Z" fill="#5D423C"/>
  <path d="M47.09,15.92 C47.04,17.57 48.25,18.17 49.31,18.11 C50.6,18.05 51.27,17.13 51.25,15.94 C51.22,14.65 50.19,14.08 49.26,14 C48.33,13.92 47.13,14.74 47.09,15.92 Z" fill="#5D423C"/>
  <path d="M55.07,18.17 C53.93,18.12 53.08,19.1 53.24,20.36 C53.37,21.37 54.25,21.9 55.23,21.83 C56.34,21.75 56.81,20.75 56.78,19.79 C56.75,19.05 56.18,18.22 55.07,18.17 Z" fill="#5D423C"/>
  <path d="M14.15,48.74 C13.29,49.53 13.74,50.87 14.3,51.37 C14.94,51.95 16.29,51.9 16.85,51.09 C17.33,50.39 17.32,49.23 16.57,48.65 C16.02,48.23 14.97,47.99 14.15,48.74 Z" fill="#5D423C"/>
  <path d="M58.43,42.14 C58.43,42.14 37.79,43.69 35.28,51.75 C33.81,56.46 33.32,64.49 37.67,70.84 C40.58,75.09 45.61,78.82 54.11,79.48 C60.55,79.98 65.48,78.12 69.05,75.18 C68.16,74.23 67.02,73.13 67.02,73.13 L73.01,67.63 C73.01,67.63 73.61,68.23 74.2,68.89 C77.15,63.08 77.87,54.98 76.46,51.16 C74.64,46.19 58.43,42.14 58.43,42.14 Z" fill="#FFA62B"/>
  <path d="M60.65,35.25 C50.36,32.79 39.1,40.5 35.99,49.29 C32.88,58.08 38.26,70.84 51.64,73.84 C66.01,77.06 76.62,64.51 76.83,54.76 C77.05,45.01 71.12,37.76 60.65,35.25 Z" fill="#F7C876"/>
  <path d="M44.06,45.95 C42.11,44.73 38.02,48.82 38.5,54.5 C38.94,59.59 41.55,62.43 43.81,62.01 C47.41,61.34 44.49,56.89 44.42,52.61 C44.38,49.97 46.55,47.51 44.06,45.95 Z" fill="#FEFFFE"/>
  <path d="M73.38,74.16 C63.66,83.49 53.16,91.51 51.24,93.21 C49.32,94.91 46.34,96.4 46.13,99.28 C45.92,102.15 46.02,104.81 47.19,107.37 C48.36,109.93 52.19,113.97 54.21,115.88 C56.23,117.8 62.4,122.69 65.07,123.65 C67.73,124.61 70.18,123.76 71.67,123.12 C73.16,122.48 75.08,119.82 75.08,119.82 L86.68,101.2 L99.03,90.03 C99.03,90.03 117.97,75.98 117.87,75.45 C117.76,74.92 118.93,71.73 118.4,69.38 C117.87,67.03 115.46,64.99 115.46,64.99 C115.46,64.99 115.61,61.78 114.72,59.89 C114.23,58.85 112.55,57.29 110.89,56.56 C108.95,55.71 105.94,55.75 105.94,55.75 C105.94,55.75 105.85,52.41 99.77,51.07 C95.96,50.23 92.64,54.16 91.36,55.65 C90.09,57.13 84.02,63.94 73.38,74.16 Z" fill="#FFEDC4"/>
  <path d="M53.51,103.71 C51.3,105.86 55.25,110.2 57.5,112.32 C59.47,114.18 63.41,117.57 65.59,115.69 C67.77,113.81 64.22,109.13 61.8,106.75 C59.73,104.73 55.99,101.29 53.51,103.71 Z" fill="#BF9177"/>
  <path d="M60.41,96.26 C61.22,97.88 67.73,93.73 69.14,92.75 C73.08,89.98 82.34,81.36 88.3,75.62 C94.26,69.88 106.04,55.76 106.04,55.76 C106.04,55.76 105.72,54.26 104.66,53.29 C104.03,52.71 102.54,51.99 102.54,51.99 C102.54,51.99 86.91,69.76 83.19,73.38 C79.46,77 68.82,86.58 66.9,88.07 C64.99,89.56 59.56,94.56 60.41,96.26 Z" fill="#FAC96D"/>
  <path d="M71.05,104.64 C72.14,105.73 76.52,102.33 78.93,100.17 C81.42,97.94 96.49,83.46 100.43,79.95 C104.37,76.44 115.49,64.98 115.49,64.98 C115.49,64.98 115.7,63.39 115.28,61.5 C114.98,60.13 114.25,59.14 114.25,59.14 C114.25,59.14 101.49,71.85 98.62,74.94 C95.75,78.03 79.53,92.88 77.33,94.84 C73.18,98.57 70.1,103.68 71.05,104.64 Z" fill="#FAC96D"/>
  <path d="M76.68,110.77 C74.13,115.03 73.62,121.55 73.62,121.55 C73.62,121.55 80.93,112.9 85.51,108.22 C87.11,106.58 90.28,103.48 93.81,100.17 C92.97,99.29 91.99,98.33 91.99,98.33 L97.62,93.03 C97.62,93.03 98.44,93.89 99.47,94.95 C104.27,90.52 108.79,86.45 110.19,85.34 C114.34,82.04 117.64,79.59 118.28,78.53 C118.92,77.47 118.22,73.41 118.22,73.41 C118.22,73.41 105.83,81.93 94.76,92.47 C86.31,100.51 78.41,107.88 76.68,110.77 Z" fill="#FAC96D"/>
</svg>
